docs/public/static/images/examples/gatsby.svg

<svg fill="none" height="40" viewBox="0 0 40 40" width="40" xmlns="http://www.w3.org/2000/svg" xmlns:xlink="http://www.w3.org/1999/xlink"><clipPath id="a"><path d="m0 0h40v40h-40z"/></clipPath><g clip-path="url(#a)"><path d="m35.7113 19.9993h-9.9988v2.8565h6.857c-1.0005 4.2856-4.1423 7.8575-8.2862 9.2882l-16.42722-16.4304c1.71426-4.9994 6.57032-8.57131 12.14322-8.57131 4.2857 0 8.1412 2.14277 10.5707 5.42791l2.1429-1.856c-2.8566-3.85716-7.4291-6.42856-12.7136-6.42856-7.4291 0-13.71411 5.28617-15.28811 12.28506l18.85691 18.8569c6.8585-1.7142 12.1432-7.9994 12.1432-15.4283zm-31.42712.1433c0 4.0004 1.57238 7.8576 4.57079 10.8575 3.00003 3 7.00043 4.5709 10.85763 4.5709z" fill="#fff"/><path d="m20.0023 0c-11.00242 0-20.0023 8.99989-20.0023 19.9992 0 11.0009 8.99988 20.0008 19.9992 20.0008 11.001 0 20.0008-8.9999 20.0008-20.0008 0-10.99931-8.9998-19.9992-20.0008-19.9992zm-11.14267 31.1419c-3.00152-3-4.57241-6.9989-4.57241-10.8559l15.57178 15.4283c-4.0004-.1433-8.001-1.5725-11.00087-4.5724zm14.57127 4.1438-18.71668-18.715c1.57401-6.99731 7.85918-12.28509 15.28808-12.28509 5.2862 0 9.8571 2.57139 12.7153 6.42859l-2.1429 1.8576c-2.4295-3.28678-6.2867-5.42955-10.5724-5.42955-5.5713 0-10.28554 3.57195-12.14156 8.57135l16.42726 16.4288c4.1423-1.4291 7.2872-4.9994 8.2862-9.285h-6.8571v-2.8582h10.0004c0 7.429-5.2862 13.7156-12.2866 15.2865z" fill="#639"/></g></svg>

<svg width="40" height="40" viewBox="0 0 40 40" fill="none" xmlns="http://www.w3.org/2000/svg">
<g clip-path="url(#clip0_1518_18229)">
<path d="M35.7113 19.9993H25.7125V22.8558H32.5695C31.569 27.1414 28.4272 30.7133 24.2833 32.144L7.85608 15.7136C9.57034 10.7142 14.4264 7.14229 19.9993 7.14229C24.285 7.14229 28.1405 9.28506 30.57 12.5702L32.7129 10.7142C29.8563 6.85704 25.2838 4.28564 19.9993 4.28564C12.5702 4.28564 6.28519 9.57181 4.71119 16.5707L23.5681 35.4276C30.4266 33.7134 35.7113 27.4282 35.7113 19.9993ZM4.28418 20.1426C4.28418 24.143 5.85656 28.0002 8.85497 31.0001C11.855 34.0001 15.8554 35.571 19.7126 35.571L4.28418 20.1426Z" fill="white"/>
<path d="M20.0023 0C8.99988 0 0 8.99989 0 19.9992C0 31.0001 8.99988 40 19.9992 40C31.0002 40 40 31.0001 40 19.9992C40 8.99989 31.0002 0 19.9992 0H20.0023ZM8.85963 31.1419C5.85811 28.1419 4.28722 24.143 4.28722 20.286L19.859 35.7143C15.8586 35.571 11.858 34.1418 8.85813 31.1419H8.85963ZM23.4309 35.2857L4.71422 16.5707C6.28823 9.57339 12.5734 4.28561 20.0023 4.28561C25.2885 4.28561 29.8594 6.857 32.7176 10.7142L30.5747 12.5718C28.1452 9.28502 24.288 7.14225 20.0023 7.14225C14.431 7.14225 9.71676 10.7142 7.86074 15.7136L24.288 32.1424C28.4303 30.7133 31.5752 27.143 32.5742 22.8574H25.7171V19.9992H35.7175C35.7175 27.4282 30.4313 33.7148 23.4309 35.2857Z" fill="#663399"/>
</g>
<defs>
<clipPath id="clip0_1518_18229">
<rect width="40" height="40" fill="white"/>
</clipPath>
</defs>
</svg>
